src/assets/Imgs/profile/right.svg

<svg width="24" height="25" viewBox="0 0 24 25" fill="none" xmlns="http://www.w3.org/2000/svg">
<g id="Frame">
<path id="Vector" d="M15 23.5137H9C3.57 23.5137 1.25 21.1937 1.25 15.7637V9.76367C1.25 4.33367 3.57 2.01367 9 2.01367H15C20.43 2.01367 22.75 4.33367 22.75 9.76367V15.7637C22.75 21.1937 20.43 23.5137 15 23.5137ZM9 3.51367C4.39 3.51367 2.75 5.15367 2.75 9.76367V15.7637C2.75 20.3737 4.39 22.0137 9 22.0137H15C19.61 22.0137 21.25 20.3737 21.25 15.7637V9.76367C21.25 5.15367 19.61 3.51367 15 3.51367H9Z" fill="#BBBBBB"/>
<path id="Vector_2" d="M10.7402 17.0438C10.5502 17.0438 10.3602 16.9738 10.2102 16.8238C9.92017 16.5338 9.92017 16.0538 10.2102 15.7638L13.2102 12.7638L10.2102 9.76383C9.92017 9.47383 9.92017 8.99383 10.2102 8.70383C10.5002 8.41383 10.9802 8.41383 11.2702 8.70383L14.8002 12.2338C15.0902 12.5238 15.0902 13.0038 14.8002 13.2938L11.2702 16.8238C11.1202 16.9738 10.9302 17.0438 10.7402 17.0438Z" fill="#BBBBBB"/>
</g>
</svg>

<svg fill="none" height="25" viewBox="0 0 24 25" width="24" xmlns="http://www.w3.org/2000/svg"><g fill="#bbb"><path d="m15 23.5137h-6c-5.43 0-7.75-2.32-7.75-7.75v-6.00003c0-5.43 2.32-7.75 7.75-7.75h6c5.43 0 7.75 2.32 7.75 7.75v6.00003c0 5.43-2.32 7.75-7.75 7.75zm-6-20.00003c-4.61 0-6.25 1.64-6.25 6.25v6.00003c0 4.61 1.64 6.25 6.25 6.25h6c4.61 0 6.25-1.64 6.25-6.25v-6.00003c0-4.61-1.64-6.25-6.25-6.25z"/><path d="m10.7402 17.0438c-.19 0-.38-.07-.53-.22-.29003-.29-.29003-.77 0-1.06l3-3-3-2.99997c-.29003-.29-.29003-.77 0-1.06.29-.29.77-.29 1.06 0l3.53 3.52997c.29.29.29.77 0 1.06l-3.53 3.53c-.15.15-.34.22-.53.22z"/></g></svg>
